!!!!SEGMENT: Bau3001-En_douleur_en_tristesse.krn
!!!id: Bau3001
!!!AGN: Chanson
!!!SCT: Lenaerts (1963)
!!!voices: 5
!!!COM: Noel Bauldeweyn
!!!OTL: En douleur en tristesse
**kern	**text	**kern	**text	**kern	**text	**kern	**text	**kern	**text
*part5	*part5	*part4	*part4	*part3	*part3	*part2	*part2	*part1	*part1
*staff5	*staff5	*staff4	*staff4	*staff3	*staff3	*staff2	*staff2	*staff1	*staff1
*I"Bassus	*	*I"Tenor II	*	*I"Tenor I	*	*I"Altus	*	*I"Superius	*
*I'B	*	*I'T. II	*	*I'T. I	*	*I'A	*	*I'S	*
*clefF4	*	*clefGv2	*	*clefGv2	*	*clefGv2	*	*clefG2	*
*k[b-]	*	*k[b-]	*	*k[b-]	*	*k[b-]	*	*k[b-]	*
*F:	*	*F:	*	*F:	*	*F:	*	*F:	*
*M2/1	*	*M2/1	*	*M2/1	*	*M2/1	*	*M2/1	*
*met(C|)	*	*met(C|)	*	*met(C|)	*	*met(C|)	*	*met(C|)	*
=1	=1	=1	=1	=1	=1	=1	=1	=1	=1
!	!	!	!	!LO:TX:a:t=Canon&colon; tenor I/altus at the unison	!	!	!	!	!
0r	.	0r	.	0r	.	0r	.	2r	.
.	.	.	.	.	.	.	.	2g	En
.	.	.	.	.	.	.	.	2g	dou-
.	.	.	.	.	.	.	.	2b-y	-leur
=2	=2	=2	=2	=2	=2	=2	=2	=2	=2
0r	.	1r	.	0r	.	0r	.	2a	en
.	.	.	.	.	.	.	.	2g	tri-
.	.	2r	.	.	.	.	.	1dd	-stes-
.	.	2G	En	.	.	.	.	.	.
=3	=3	=3	=3	=3	=3	=3	=3	=3	=3
0r	.	2G	dou-	0r	.	0r	.	1dd	-se
.	.	2B-y	-leur	.	.	.	.	.	.
.	.	2A	en	.	.	.	.	2cc	lan-
.	.	2G	tri-	.	.	.	.	2b-y	-guy-
=4	=4	=4	=4	=4	=4	=4	=4	=4	=4
2r	.	1d	-stes-	0r	.	0r	.	2a	-ray-
2GG	En	.	.	.	.	.	.	1b-y	-ie
2GG	dou-	1d	-se	.	.	.	.	.	.
2BB-y	-leur	.	.	.	.	.	.	4a	.
.	.	.	.	.	.	.	.	4g	.
=5	=5	=5	=5	=5	=5	=5	=5	=5	=5
2AA	en	2c	lan-	0r	.	0r	.	2f	tous-
2GG	tri-	2B-y	-guy-	.	.	.	.	2g	.
1D	-stes-	2A	-ray-	.	.	.	.	4a	.
.	.	.	.	.	.	.	.	4g	.
.	.	[2B-y	-ie	.	.	.	.	4f	.
.	.	.	.	.	.	.	.	4e	.
=6	=6	=6	=6	=6	=6	=6	=6	=6	=6
1D	-se	2B-]	.	0r	.	0r	.	2.f	.
.	.	4A	.	.	.	.	.	.	.
.	.	4G	.	.	.	.	.	4g	.
2C	lan-	2A	.	.	.	.	.	2e	.
2BB-y	-guy-	2D	tous-	.	.	.	.	2d	.
=7	=7	=7	=7	=7	=7	=7	=7	=7	=7
2AA	-ray-	2E	.	2r	.	0r	.	2c	-jours,
2.BB-y	-ie	2.D	.	2G	En	.	.	1d	lan-
.	.	.	.	2G	dou-	.	.	.	.
4AA	.	4C	.	.	.	.	.	.	.
2GG	.	4D	.	2B-y	-leur	.	.	2g	-guy-
.	.	4E	.	.	.	.	.	.	.
=8	=8	=8	=8	=8	=8	=8	=8	=8	=8
2FF	tous-	2F	.	2A	en	0r	.	2a	-ray-
2C	.	2G	.	2G	tri-	.	.	2e	.
2BB-y	.	1D	-jours.	1d	-stes-	.	.	2f	.
2GG	.	.	.	.	.	.	.	[2g	.
=9	=9	=9	=9	=9	=9	=9	=9	=9	=9
1GG	-jours	1.G	Si-	1d	-se	2r	.	2g]	.
.	.	.	.	.	.	2G	En	4f	.
.	.	.	.	.	.	.	.	4e	.
1G	[lan-	.	.	1r	.	2G	dou-	1d	-je
.	.	2G	-ie	.	.	2B-y	-leur	.	.
=10	=10	=10	=10	=10	=10	=10	=10	=10	=10
2F	-guy-	2A	perds	1r	.	2A	en	2r	.
2G	-ray-	2B-y	.	.	.	2G	tri-	1g	tous-
1D	-ie	1A	ma	1d	lan-	1d	-stes-	.	.
.	.	.	.	.	.	.	.	2f#i	.
=11	=11	=11	=11	=11	=11	=11	=11	=11	=11
2.GG	tous-	1G	mai-	2.B-y	-guy-	1d	-se	1g	-jours
4AA	.	.	.	4c	.	.	.	.	.
1BB-y	.	2F	-stres-	2d	-ray-	1r	.	1r	.
.	.	[2B-y	.	2d	-ie	.	.	.	.
=12	=12	=12	=12	=12	=12	=12	=12	=12	=12
1FF	-jours]	2B-]	.	1c	tous-	1r	.	1f	Si-
.	.	2A	.	.	.	.	.	.	.
2.BB-y	Si-	[1B-y	-se	1B-y	-jours	1d	lan-	[1f	-ie
4C	.	.	.	.	.	.	.	.	.
=13	=13	=13	=13	=13	=13	=13	=13	=13	=13
2D	-ie	2B-]	.	0r	.	2.B-y	-guy-	2f]	.
2E	perds	2G	ma-	.	.	.	.	2g	perds
.	.	.	.	.	.	4c	.	.	.
2D	ma	2A	-da-	.	.	2d	-ray-	2f	.
2BB-y	mai-	2B-y	.	.	.	2d	-ie	[2b-y	ma
=14	=14	=14	=14	=14	=14	=14	=14	=14	=14
1F	-stres-	2F	.	1r	.	1c	tous-	2b-]	.
.	.	2c	.	.	.	.	.	2a	mai-
2BB-y	.	4d	.	2r	.	1B-y	-jours	2b-y	-stres-
.	.	4c	.	.	.	.	.	.	.
[2E-i	.	4B-y	.	2G	Si-	.	.	[2g	.
.	.	4A	.	.	.	.	.	.	.
=15	=15	=15	=15	=15	=15	=15	=15	=15	=15
4E-]	.	1G	-me	2G	-ie	0r	.	4g]	.
4D	.	.	.	.	.	.	.	4f	.
4BB-y	.	.	.	2B-y	perds	.	.	1d	.
4C	.	.	.	.	.	.	.	.	.
2D	.	2F	par	2A	ma	.	.	.	.
2E-i	.	2G	.	2G	mai-	.	.	[2g	.
=16	=16	=16	=16	=16	=16	=16	=16	=16	=16
1D	-se	1A	a-	1d	-stres-	1r	.	2g]	.
.	.	.	.	.	.	.	.	2f#i	.
1r	.	2G	.	1d	-se	2r	.	2g	-se
.	.	[2E-X	.	.	.	2G	Si-	4G	ma-
.	.	.	.	.	.	.	.	4A	.
=17	=17	=17	=17	=17	=17	=17	=17	=17	=17
2r	.	4E-]	.	0r	.	2G	-ie	4B-y	-da-
.	.	4D	.	.	.	.	.	4c	.
2G	ma-	4BB-y	.	.	.	2B-y	perds	4d	.
.	.	4C	.	.	.	.	.	4e	.
2F	.	2D	.	.	.	2A	ma	4f	.
.	.	.	.	.	.	.	.	4d	.
[2B-y	-da-	2E-i	.	.	.	2G	mai-	4e	.
.	.	.	.	.	.	.	.	4f	.
=18	=18	=18	=18	=18	=18	=18	=18	=18	=18
2B-]	.	1D	-mours.	1d	ma-	1d	-stres-	4g	.
.	.	.	.	.	.	.	.	4f	.
2A	.	.	.	.	.	.	.	4f	.
.	.	.	.	.	.	.	.	4e	.
1G	-me	2r	.	2.B-y	-da-	1d	-se	2g	.
.	.	2G	Ma-	.	.	.	.	2e	-me
.	.	.	.	4c	.	.	.	.	.
=19	=19	=19	=19	=19	=19	=19	=19	=19	=19
2F	par	2A	-mour	2d	-me	0r	.	1f	par-
2D	.	1B-y	luy	2d	par	.	.	.	.
2E	a-	.	.	1c	a-	.	.	2g	-a-
2F	.	2A	ay	.	.	.	.	2f	.
=20	=20	=20	=20	=20	=20	=20	=20	=20	=20
1BB-y	-mours.	4B-y	.	1B-y	-mours	1d	ma-	1d	-mours.
.	.	4A	.	.	.	.	.	.	.
.	.	4G	.	.	.	.	.	.	.
.	.	4F	.	.	.	.	.	.	.
1r	.	1G	.	1r	.	2.B-y	-da-	2r	.
.	.	.	.	.	.	.	.	2g	Ma-
.	.	.	.	.	.	4c	.	.	.
=21	=21	=21	=21	=21	=21	=21	=21	=21	=21
0r	.	2F	don-	0r	.	2d	-me	2a	-mour
.	.	2D	-né-	.	.	2d	par	1b-y	.
.	.	2E	.	.	.	1c	a-	.	.
.	.	2F	.	.	.	.	.	2a	luy
=22	=22	=22	=22	=22	=22	=22	=22	=22	=22
2r	.	1G	-e	2r	.	1B-y	-mours	1.b-y	ay
2G	Ma-	.	.	2B-y	ma-	.	.	.	.
2G	-mour	1r	.	2B-y	-mour	1r	.	.	.
2D	luy	.	.	2d	luy	.	.	[2a	don-
=23	=23	=23	=23	=23	=23	=23	=23	=23	=23
2F	ay	0r	.	2c	ay	0r	.	4a]	.
.	.	.	.	.	.	.	.	4g	.
2G	don-	.	.	2B-y	don-	.	.	1g	-né-
1D	-né-	.	.	1A	-né-	.	.	.	.
.	.	.	.	.	.	.	.	2f	.
=24	=24	=24	=24	=24	=24	=24	=24	=24	=24
1GG	-e	2r	.	1G	-e	2r	.	2e	.
.	.	2G	ma-	.	.	2B-y	ma-	2.d	.
1r	.	2G	-mour	1r	.	2B-y	-mour	.	.
.	.	.	.	.	.	.	.	4e	.
.	.	2D	luy	.	.	2d	luy	4f	.
.	.	.	.	.	.	.	.	4g	.
=25	=25	=25	=25	=25	=25	=25	=25	=25	=25
0r	.	2F	ay	1r	.	2c	ay	2a	.
.	.	2G	don-	.	.	2B-y	don-	1g	.
.	.	1D	-né-	1d	ja-	1A	-né-	.	.
.	.	.	.	.	.	.	.	2f#i	.
=26	=26	=26	=26	=26	=26	=26	=26	=26	=26
1C	ja-	1E	-e,	1c	-mais	1G	-e	1g	-e,
1D	.	1F	ja-	1A	ne	1r	.	2r	.
.	.	.	.	.	.	.	.	[2f	ja-
=27	=27	=27	=27	=27	=27	=27	=27	=27	=27
0BB-y	-mais	2F	-mais	1.B-y	l'ou-	1r	.	2f]	.
.	.	2E	ne	.	.	.	.	2.g	-mais
.	.	2D	l'ou-	.	.	1d	ja-	.	.
.	.	.	.	.	.	.	.	4f	ne
.	.	2F	-bly-	2A	.	.	.	[2f	l'ou-
=28	=28	=28	=28	=28	=28	=28	=28	=28	=28
1C	ne	1C	-ray.	1G	-bly-	1c	-mais	2f]	.
.	.	.	.	.	.	.	.	2e	.
1D	l'ou-	2r	.	1F	-ray.	1A	ne	1f	-bli-
.	.	2F	Et	.	.	.	.	.	.
=29	=29	=29	=29	=29	=29	=29	=29	=29	=29
2BB-y	.	1G	pour	0r	.	1.B-y	l'ou-	2d	.
2GG	.	.	.	.	.	.	.	1g	.
1D	-bly-	2D	.	.	.	.	.	.	.
.	.	[2d	cho-	.	.	2A	.	2f#i	.
=30	=30	=30	=30	=30	=30	=30	=30	=30	=30
1GG	-ray.	2d]	.	1d	Et	1G	-bly-	1g	-ray.
.	.	4c	.	.	.	.	.	.	.
.	.	4B-y	.	.	.	.	.	.	.
1D	Et	2A	.	1f	pour	1F	-ray	1r	.
.	.	2F	-se	.	.	.	.	.	.
=31	=31	=31	=31	=31	=31	=31	=31	=31	=31
2C	pour	2G	qu'on	2e	cho-	0r	.	1g	Et
2BB-y	.	2D	m'en	2d	-se	.	.	.	.
1AA	cho-	1E	dy-	2d	qu'on	.	.	1a	our
.	.	.	.	2c#i	m'en	.	.	.	.
=32	=32	=32	=32	=32	=32	=32	=32	=32	=32
1BB-y	-se	1D	-e	1d	dy-	1d	Et	2f	cho-
.	.	.	.	.	.	.	.	2b-y	-se
1D	qu'on	1r	.	1B-y	-e	1f	pour	2a	qu'on
.	.	.	.	.	.	.	.	2f	.
=33	=33	=33	=33	=33	=33	=33	=33	=33	=33
2C	m'en	2r	.	2c	tous-	2e	cho-	2g	m'en
2BB-y	.	2F	et	2d	-jours	2d	-se	2b-y	.
1E	dy-	1G	pour	2B-y	le	2d	qu'on	4a	.
.	.	.	.	.	.	.	.	4g	.
.	.	.	.	2c	ser-	2c	m'en	[2g	dy-
=34	=34	=34	=34	=34	=34	=34	=34	=34	=34
1D	-e	1A	cho-	1A	-vy-	1d	dy-	2g]	.
.	.	.	.	.	.	.	.	2f#i	.
2r	.	2B-y	-se	1G	-ray.	1B-y	-e	2g	-e
2G	tous-	2G	.	.	.	.	.	[2b-y	tous-
=35	=35	=35	=35	=35	=35	=35	=35	=35	=35
2F	-jours	2A	qu'on	0r	.	2c	tous-	4b-]	.
.	.	.	.	.	.	.	.	4a	.
2D	le	2F	m'en	.	.	2d	-jours	2.a	-jours
2E	ser-	1G	dy-	.	.	2B-y	le	.	.
.	.	.	.	.	.	.	.	4g	le
2C	.	.	.	.	.	2c	ser-	[2g	ser-
=36	=36	=36	=36	=36	=36	=36	=36	=36	=36
1D	-vi-	2D	-e,	1r	.	1A	-vi-	2g]	.
.	.	1d	tous-	.	.	.	.	2f#i	-vi-
1GG	-ray.	.	.	1d	Et	1G	-ray	1g	-ray.
.	.	4c	.	.	.	.	.	.	.
.	.	4B-y	.	.	.	.	.	.	.
=37	=37	=37	=37	=37	=37	=37	=37	=37	=37
1D	Et	2A	.	1f	pour	0r	.	1r	.
.	.	2F	-jours	.	.	.	.	.	.
2C	pour	2G	le	2e	cho-	.	.	1g	Et
2BB-y	.	2D	ser-	2d	-se	.	.	.	.
=38	=38	=38	=38	=38	=38	=38	=38	=38	=38
1AA	cho-	1E	-vi-	2d	qu'on	1r	.	1a	pour
.	.	.	.	2c#i	m'en	.	.	.	.
1BB-y	-se	1D	-ray	1d	dy-	1d	Et	2f	cho-
.	.	.	.	.	.	.	.	2b-y	-se
=39	=39	=39	=39	=39	=39	=39	=39	=39	=39
1D	qu'on	1r	.	1B-y	-e	1f	pour	2a	qu'on
.	.	.	.	.	.	.	.	2f	m'en
2C	m'en	2r	.	2c	tous-	2e	cho-	2g	dy-
2BB-y	.	2F	et	2d	-jours	2d	-se	2b-y	.
=40	=40	=40	=40	=40	=40	=40	=40	=40	=40
1E	dy-	1G	pour	2B-y	m'en	2d	qu'on	4a	.
.	.	.	.	.	.	.	.	4g	.
.	.	.	.	2c	ser-	2c	m'en	1g	-e
1D	-e	1A	.	1A	-vi-	1d	dy-	.	.
.	.	.	.	.	.	.	.	2f#i	tous-
=41	=41	=41	=41	=41	=41	=41	=41	=41	=41
2r	.	2B-y	cho-	2G	-ray,	1B-y	-e	2g	-jours
2G	tous-	2G	-se	2d	[tous-	.	.	2.b-y	le
2F	-jours	2A	qu'on	2f	-jours	2c	tous-	.	.
.	.	.	.	.	.	.	.	4a	.
2D	le	2F	m'en	2f	m'en	2d	-jours	[2a	ser-
=42	=42	=42	=42	=42	=42	=42	=42	=42	=42
2E	ser-	2G	dy-	1e	ser-	2B-y	le	4a]	.
.	.	.	.	.	.	.	.	4g	.
2C	.	2E	-e	.	.	2c	ser-	1g	-vi-
1D	-vi-	2F	tous-	1d	-vi-	1A	-vi-	.	.
.	.	2D	-jours	.	.	.	.	2f#i	.
=43	=43	=43	=43	=43	=43	=43	=43	=43	=43
1GG	.	2E	le	1B-y	.	[0Gl	-ray.	[0gl	-ray.
.	.	2D	ser-	.	.	.	.	.	.
1C	.	1E	-vi-	1c	.	.	.	.	.
=44	=44	=44	=44	=44	=44	=44	=44	=44	=44
00GGl	-ray.	00Dl	-ray.	00dl	-ray.]	00G]	.	00g]	.
==	==	==	==	==	==	==	==	==	==
*-	*-	*-	*-	*-	*-	*-	*-	*-	*-
!!!system-decoration: [*]
!!!RDF**kern: i = editorial accidental
!!!RDF**kern: l = terminal long
!!!ENC: Benjamin Ory
!!!END: 2021/9/24
!!!EED: Benjamin Ory
!!!EEV: 2021/9/24
!!!YEC: Copyright 2021 Benjamin Ory, All Rights Reserved
!!!ONB: Translated from MusicXML on 2021/9/24
